icon/lg/terser-icon.svg

<?xml version="1.0" encoding="UTF-8"?>
<svg viewBox="0 0 256 257" version="1.1" xmlns="http://www.w3.org/2000/svg" xmlns:xlink="http://www.w3.org/1999/xlink" preserveAspectRatio="xMidYMid" height="1em" width="1em">
  <g>
    <path d="M99.4047197,111.84937 L60.0761099,128.270613 L0,93.6321353 L34.6384778,34.6384778 L94.1733615,69.2769556 L99.4047197,111.84937 Z M157.358575,144.924764 L162.367865,187.264271 L221.902748,221.902748 L256,162.909091 L195.92389,128.270613 L157.358575,144.924764 Z" fill="#00B3E3"/>
    <path d="M128.270613,160.204261 L162.367865,187.264271 L162.367865,256.541226 L94.1733615,256.541226 L94.1733615,187.264271 L128.270613,160.204261 Z M162.367865,69.2769556 L162.367865,0 L94.1733615,0 L94.1733615,69.2769556 L128.270613,96.683757 L162.367865,69.2769556 Z" fill="#FFC843"/>
    <path d="M157.358575,113.343892 L162.367865,69.2769556 L221.902748,34.6384778 L256,93.6321353 L195.92389,128.270613 L157.358575,113.343892 Z M60.0761099,128.270613 L0,162.909091 L34.0972516,221.902748 L94.1733615,187.264271 L104.10909,144.845289 L60.0761099,128.270613 Z" fill="#FF4338"/>
    <path d="M162.367865,108.786469 L195.92389,128.270613 L162.367865,147.754757 L155.767122,128.270613 L162.367865,108.786469 Z M94.1733615,108.786469 L60.0761099,128.270613 L94.1733615,147.754757 L101.752682,128.270613 L94.1733615,108.786469 Z" fill="#002F32"/>
    <path d="M128.270613,88.7610994 L162.367865,69.2769556 L162.367865,108.786469 L139.869209,104.839133 L128.270613,88.7610994 Z M94.1733615,147.754757 L94.1733615,187.264271 L128.270613,167.780127 L116.327709,149.284091 L94.1733615,147.754757 Z" fill="#FF350F"/>
    <path d="M162.367865,147.754757 L162.367865,187.264271 L128.270613,167.780127 L141.97001,152.779358 L162.367865,147.754757 Z M128.270613,88.7610994 L94.1733615,69.2769556 L94.1733615,108.786469 L116.544327,105.107543 L128.270613,88.7610994 Z" fill="#008C3C"/>
    <polygon fill="#00250D" points="128.270613 88.7610994 94.1733615 108.786469 94.1733615 147.754757 128.270613 167.780127 162.367865 147.754757 162.367865 108.786469"/>
  </g>
</svg>

<svg width="256" height="257" xmlns="http://www.w3.org/2000/svg" preserveAspectRatio="xMidYMid"><path d="m99.405 111.85-39.329 16.42L0 93.633l34.638-58.994 59.535 34.639 5.232 42.572Zm57.954 33.075 5.009 42.34 59.535 34.638L256 162.909l-60.076-34.638-38.565 16.654Z" fill="#00B3E3"/><path d="m128.27 160.204 34.098 27.06v69.277H94.173v-69.277l34.098-27.06Zm34.098-90.927V0H94.173v69.277l34.098 27.407 34.097-27.407Z" fill="#FFC843"/><path d="m157.359 113.344 5.009-44.067 59.535-34.639L256 93.632l-60.076 34.639-38.565-14.927ZM60.076 128.27 0 162.909l34.097 58.994 60.076-34.639 9.936-42.419-44.033-16.574Z" fill="#FF4338"/><path d="m162.368 108.786 33.556 19.485-33.556 19.484-6.6-19.484 6.6-19.485Zm-68.195 0-34.097 19.485 34.097 19.484 7.58-19.484-7.58-19.485Z" fill="#002F32"/><path d="m128.27 88.761 34.098-19.484v39.51l-22.499-3.948-11.598-16.078Zm-34.097 58.994v39.51l34.098-19.485-11.943-18.496-22.155-1.53Z" fill="#FF350F"/><path d="M162.368 147.755v39.51L128.27 167.78l13.699-15 20.398-5.025ZM128.27 88.76 94.173 69.277v39.51l22.371-3.68 11.727-16.346Z" fill="#008C3C"/><path fill="#00250D" d="m128.27 88.761-34.097 20.025v38.969l34.098 20.025 34.097-20.025v-38.969z"/></svg>
